X:1
T:Humoresk
T:Humoresk
T:Tor Aulin Arranged by Samuel Ericsson 
C:Tor Aulin
%%score 1 2 3 ( 4 5 )
L:1/8
Q:1/4=116
M:2/4
K:D
V:1 tenor nm="Violoncello" snm="Vc."
V:2 bass nm="Violoncello" snm="Vc."
V:3 bass nm="Violoncello" snm="Vc."
V:4 bass nm="Violoncello" snm="Vc."
V:5 bass 
V:1
!p!"^Allegretto scherzando" .A/ z/ B/F/ .A/ z/ G/F/ | .E/ z/ F/B,/ .D/ z/ !tenuto!C/!tenuto!A,/ | %2
 (!>!B,2!<(! B,)C/D/!<)! |!>(! !>!B,4!>)! | .A/ z/ B/F/ .A/ z/ G/F/ | %5
"_poco sostenuto""_cresc." .E/ z/ F/B,/ .D/ z/ !tenuto!C/!tenuto!^A,/ | %6
!f!"_a tempo"!>(! (!>!B,2!>)! B,)C/D/ |!p! !>!B,4 | .A/ z/ B/F/ .A/ z/ G/F/ | %9
 .E/ z/ F/B,/ .D/ z/ !tenuto!C/!tenuto!A,/ | (!>!B,2!<(! B,)C/D/!<)! |!>(! !>!B,4!>)! | %12
!f!"_e marcato" (3ABF (3AGF | (3E(.F.B,) D/D/C/A,/ |"_dim." (!>!D2 D)E/F/ |!>(! D4!>)! |: %16
!f!"_risoluto" E/ z/ C/E/ !>!G2 | E/ z/ C/E/ !>!G2 | (3ECE (3GEG | (3!>!B(.A.G) E/E/F/G/ | %20
 A/A/G/F/ D/D/E/F/ |"_dim." (3GFE (3CDE | F/F/E/D/ (3B,(.C.D) |!p!!>(! (!>!E2 E)F/G/!>)! | %24
 (E2 E)F/G/ |!f! E/ z/ C/E/ !>!G2 | E/ z/ C/E/ !>!G2 | (3ECE (3GEG | (3!>!B(.A.G) E/E/F/G/ | %29
 A/A/G/F/ D/D/E/F/ |"_dim." (3GFE (3CDE |!>(! F/F/E/D/ B,/B,/C/D/!>)! | A,3 (A, | %33
!p!"_sostenuto" !open!A/) z/ B/F/ A/ z/ (.G/.F/) |"_a tempo" E/ z/ F/B,/ D/ z/ C/A,/ | %35
!<(! (!>!B,2 B,)C/D/!<)! |!>(! !>!B,4!>)! |!f!"_e marcato" (3ABF (3AGF | (3E(.F.B,) D/D/C/A,/ | %39
"_dim." (D2!>(! D)E/F/!>)! | D4 :|[K:F][K:bass]!f!"^Poco animato""_sul G" (A,,2 D,2) | %42
 (3(!tenuto!E,!tenuto!F,!tenuto!G,) (A,2 | A,)(D A,B,) | (C4 | C)(C G,A,) | (B,4 | B,)(B, F,G,) | %48
 (A,2 G,F,) | (E,2!p! A,2 |"_ritard."!>(! G,F, E,2)!>)! |[K:treble]!f!"_a tempo" (A,2 !open!D2) | %52
 (3(!tenuto!E!tenuto!F!tenuto!G) (!>!A2 | A)(d AB) | (c4 | c)(c GA) | (B4 | B)(B FG) | (A2 GF) | %59
!p! (E2 !open!A2 |"_ritard." GF E2) |:"_a tempo" z4 | z4 | z4 | z4 |!mf! (E2 !open!A2) | %66
 (3(!tenuto!=B!tenuto!c!tenuto!d) (e2 | e)"_cresc."(a gf) | (e4 | %69
 e)!f!"_con molto sentimento"(!open!uA GF) | (ED) !tenuto!C!tenuto!B, | %71
[K:bass] (!>!!tenuto!uA,2 !>!!tenuto!A,2) |"_dim." A,3"_molto rall." (uD, | E, F,2 D,) | %74
!p! (A,,2 D,2) |"_sul G" (3((!tenuto!E,!tenuto!F,!tenuto!G,) A,>.A,) |1 (A,2 D,2) :|2 A,4 || %78
 !fermata!!open!D4 ||[K:D][K:tenor]!p!"^Tempo I" .A/ z/ B/F/ .A/ z/ G/F/ | %80
 .E/ z/ F/B,/ .D/ z/ !tenuto!C/!tenuto!A,/ |!<(! (!>!B,2 B,)C/D/!<)! |!>(! !>!B,4!>)! | %83
 .A/ z/ B/F/ .A/ z/ G/F/ |"_poco sost.""_cresc." .E/ z/ F/B,/ .D/ z/ !tenuto!C/!tenuto!^A,/ | %85
!f!"_a tempo" (!>!B,2!>(! B,)C/D/!>)! |!p! !>!B,4 | .A/ z/ B/F/ .A/ z/ G/F/ | %88
 .E/ z/ F/B,/ .D/ z/ !tenuto!C/!tenuto!A,/ | (!>!B,2!<(! B,)C/D/!<)! |!>(! !>!B,4!>)! | %91
!f!"_e marcato" (3ABF (3AGF | (3E(.F.B,) D/D/C/A,/ |"_dim." (D2 D)E/F/ |!>(! D4!>)! || %95
!f! E/ z/ C/E/ !>!G2 | E/ z/ C/E/ !>!G2 | (3ECE (3GEG | (3!>!B(.A.G) E/E/F/G/ | A/A/G/F/ D/D/E/F/ | %100
"_dim." (3GFE (3CDE | F/F/E/D/ (3B,(.C.D) |!p!!>(! (!>!E2 E)F/G/!>)! | (E2 E)F/G/ | %104
!f! E/ z/ C/E/ !>!G2 | E/ z/ C/E/ !>!G2 | (3ECE (3GEG | (3!>!B(.A.G) E/E/F/G/ | A/A/G/F/ D/D/E/F/ | %109
"_dim." (3GFE (3CDE |!>(! F/!>)!F/E/D/ B,/B,/C/D/ | A,3 (uA, | %112
!p!"_sost." !open!A/) z/ B/F/ A/ z/ (.G/.F/) | E/ z/ F/B,/ D/ z/ C/A,/ |!<(! (!>!B,2 B,)C/D/!<)! | %115
!>(! !>!B,4!>)! |!f!"_e marcato" (3ABF (3AGF | (3E(.F.B,)"_dim." D/D/C/A,/ || %118
!f!"^Tempo I ma risoluto" A,4 | z A,2 A, | A, [B,^G]2 [B,G] | z [A,G]2 [A,G] | (A,2 !open!D2) | %123
 (3(!tenuto!E!tenuto!F!tenuto!G) ((A2 | A)d) ucvB |"_cresc." (A2 ^A2) |!ff! B2 AG | (FE) FG | %128
 A2"_dim." ((D2 | D)!>(! E2 ^E)!>)! |!p!"_poco a poco string." (FD) CB, | A,/ z/ B,/F,/ (A,2 | %132
 A,/) z/!>(! B,/F,/ (A,2!>)! | A,/) z/ B,/F,/ (!open!A,2 |!pp! (3A)BF"_cresc." (3ABF | %135
 (3ABF (3ABF |!ff!"^Piu mosso" (3ABF (3AEF | (3DEB, (3DA,B, | %138
[K:bass] F,/A,/D,/F,/ B,,/D,/A,,/B,,/ |[K:tenor] D,/F,/A,/B,/ (D/F/)A/d/ | f z"^pizz."!f! [F,F] z | %141
!>(! [G,G] z [A,A] z!>)! |!p! [Dd] z z2 | z!pp! [Dd] z2 | z2"^arco"!ff! [Fd] z |"^G.P." z4 | %146
"^G.P." z4 |"^pizz."!pp!"_senza rit." D z D z | D z z2 |] %149
V:2
"^Allegretto scherzando" z"^pizz." .A, z .A, | z .B, z .A, | z !>![A,B,]2 [A,B,] | %3
 z !>![A,B,]2 [A,B,] | z G, z B, | z"_poco sostenuto""_cresc." B, z ^A, | %6
 z!f!"_a tempo"!>(! (B,2!>)! D) | z!p! (B,2 D) | z A, z A, | z B, z A, | z [A,B,]2 [A,B,] | %11
 z [A,B,]2 [A,B,] | z!f! G, z B, | z E z F | z"_dim." (!>!D2 F) | z (!>!D2 F) |: %16
[K:treble] z!f! .e z .[Ge] | z .e z .[Ge] | z .e z .[Ge] | z .[Ge] z .e | z d z d | %21
 z"_dim." c z c | z B z B | z!p! A z G | z A z G | z!f! e z [Ge] | z e z [Ge] | z e z [Ge] | %28
 z [Ge] z e | z d z d | z"_dim." c z c | z B z B | z A z E |[K:tenor] z!p!"_sostenuto" ^D2 A | %34
 z"_a tempo" [B,E] z [A,C] | z !>![A,B,]2 [A,B,] | z !>![A,B,]2 [A,B,] | z!f! G, z B, | z E z F | %39
 z"_dim." (D2 F) | z (D2 F) :|[K:F] z[K:treble]!mf!"^Poco animato""^arco" (f2 a) | z (e2 a) | %43
 z (f2 a) | z (a2 c') | z (g2 c') | z (g2 b) | z (f2 b) | (3z (fa) (3z (dg) | %49
 (3z (^ce) (3z!p! (fa) | (3z"_ritard." (dg) (3z (^ce) | z!mf!"_a tempo" (f2 a) | z (e2 a) | %53
 z (f2 a) | z (a2 c') | z (g2 c') | z (g2 b) | z (f2 b) | (3z (fa) (3z (dg) | %59
 (3z (^ce) (3z!p! (fa) | (3z"_ritard." (dg) (3z (^ce) |: %61
[K:bass]!mf!"_a tempo""_con calore" (E,2 A,2) | (3(!tenuto!=B,!tenuto!C!tenuto!D) (E2 | E)(A GF) | %64
 E4 |[K:treble] z A2 e | z [^G=B]2 [GB] | z A2 ^d | z ^G2 G | z ^c2 e | (3z (Bd) (3z (FB) | %71
 (3z (GA) (3z (_GA) | (3z"_dim." (FA) z2 | (3z"_molto rall." (Fd) z2 |[K:tenor] z [DF]3 | %75
 z [G,E]3 |1 z D2 A :|2 z D2 (A || !fermata!A4) ||[K:D] z"^pizz."!p!"^Tempo I" .A, z .A, | %80
 z .B, z .A, | z !>![A,B,]2 [A,B,] | z !>![A,B,]2 [A,B,] | z G, z B, | %84
 z"_poco sost.""_cresc." B, z ^A, | z!f!"_a tempo"!>(! (B,2!>)! D) | z!p! (B,2 D) | z A, z A, | %88
 z B, z A, | z !>![A,B,]2 [A,B,] | z [A,B,]2 [A,B,] | z!f! G, z B, | z E z F | %93
 z"^arco""_dim." (!>!D2 F) | z (!>!D2 F) ||[K:treble] z!f! e z [Ge] | z e z [Ge] | z e z [Ge] | %98
 z [Ge] z e | z d z d | z"_dim." c z c | z B z B | z!p! A z G | z A z G | z!f! .e z .[Ge] | %105
 z e z [Ge] | z e z [Ge] | z [Ge] z e | z d z d | z"_dim." c z c | z!>(! B!>)! z B | z A z E | %112
[K:tenor] z!p!"_sost." ^D2 A | z .[B,E] z .[A,C] | z !>![A,B,]2 [A,B,] | z !>![A,B,]2 [A,B,] | %116
!f! z G, z B, | z E z"_dim." F ||[K:bass]"^arco"!f!"^Tempo I ma risoluto" (A,,2 D,2) | %119
 (3(E,F,G,) (A,2 | A,)(D CB,) | A,4 |[K:treble] z [FA]2 [FA] | z [GA]2 [GA] | z [^GA]2 [GA] | %125
 z"_cresc." [CA]2 [=C^A] | z!ff! [DB]2 [^DB] | z B2 _B | z"_dim." [EA]2 [DA] | z [^G,E]2 [G,^E] | %130
 z!p!"_poco a poco string." [A,F]2 [^G,=F] | z [G,E]2 [G,E] | z!>(! [A,F]2!>)! [^G,=F] | %133
 z [G,E]2 [G,E] | z!pp!"^pizz." F z"_cresc." F | z F z F |"^Piu mosso" z!ff!"^arco" F z2 | z4 | %138
 z4 | z4 | z2 z"^pizz."!f! c | z!>(! d z c!>)! | z!p! d z2 | z4 | z z"^arco"!ff! !>![_Bf] z | %145
"^G.P." z4 |"^G.P." z4 |[K:bass]"_senza rit." z"^pizz."!pp! A, z A, | z A, z2 |] %149
V:3
"^Allegretto scherzando" z"^pizz." .[D,D] z .[D,D] | z .[E,D] z .[E,C] | z !>!D,2 D | z !>!D,2 D | %4
 z [D,B,] z [E,D] | z"_poco sostenuto""_cresc." [E,D] z [E,C] | z!f!"_a tempo"!>(! (D,2!>)! F,) | %7
 z!p! (D,2 F,) | z [D,D] z [D,D] | z [E,D] z [E,C] | z D,2 D | z D,2 D | z!f! [D,B,] z [E,D] | %13
 z [G,D] z [G,C] | z"_dim." (!>!F,2 A,) | z (!>!F,2 A,) |:[K:treble] z!f! .c z .B | z .c z .B | %18
 z .c z .B | z .B z .c | z [FA] z G | z"_dim." [CE] z [CF] | z [B,D] z [B,D] | z!p! [A,C] z [B,E] | %24
 z [A,C] z [B,E] | z!f! c z B | z c z B | z c z B | z B z c | z [FA] z G | z"_dim." [CE] z [CF] | %31
 z [B,D] z [B,D] | z [A,C] z [A,C] |[K:bass] z!p!"_sostenuto" [^D,A,]2 [A,^D] | %34
 z"_a tempo" E, z E, | z !>!D,2 D | z !>!D,2 D | z!f! [D,B,] z [E,D] | z [G,D] z [G,C] | %39
 z"_dim." (F,2 A,) | z (F,2 A,) :|[K:F] z[K:treble]!mf!"^Poco animato""^arco" (A2 d) | z (A2 ^c) | %43
 z (A2 d) | z (c2 f) | z (c2 e) | z (B2 _e) | z (B2 d) | (3z (Ad) (3z (G=B) | %49
 (3z (EA) (3z!p! (Ad) | (3z"_ritard." (G=B) (3z (EA) | z!mf!"_a tempo" (A2 d) | z (A2 ^c) | %53
 z (A2 d) | z (c2 f) | z (c2 e) | z (B2 _e) | z (B2 d) | (3z (Ad) (3z (G=B) | %59
 (3z (EA) (3z!p! (Ad) | (3z"_ritard." (G=B) (3z (EA) |:[K:bass] z!mf!"_a tempo" [E,C]2 [E,C] | %62
 z [E,^G,]2 [E,G,] | z [A,^D]2 [A,D] | z [^G,D]2 [G,D] | z E2 A | z E2 e | z F2 A | %68
 z E2 !open![de] | z E2 A | (3z (D^G) (3z (B,D) | (3z (EA) (3z (_EA) | (3z"_dim." (DA) z2 | %73
 (3z"_molto rall." (Dd) z2 | z A,2 ^G, | z D2 ^C |1 z F,2 D :|2 z F,2 (D || !fermata!D4) || %79
[K:D][K:bass] z"^pizz."!p!"^Tempo I" .[D,D] z .[D,D] | z .[E,D] z .[E,C] | z"^arco" !>!D,2 D | %82
 z !>!D,2 D | z [D,B,] z [E,D] | z"_poco sost.""_cresc." [E,D] z [E,C] | %85
 z!f!"_a tempo"!>(! (D,2!>)! F,) | z!p! (D,2 F,) | z [D,D] z [D,D] | z [E,D] z [E,C] | z !>!D,2 D | %90
 z D,2 D | z!f! [D,B,] z [E,D] | z [G,D] z [G,C] | z"_dim." (!>!F,2 A,) | z (!>!F,2 A,) || %95
[K:treble] z!f! c z B | z c z B | z c z B | z B z c | z [FA] z G |[K:tenor] z"_dim." [CE] z [CF] | %101
 z [B,D] z [B,D] | z!p! [A,C] z [B,E] | z [A,C] z [B,E] |[K:treble] z!f! .c z .B | z c z B | %106
 z c z B | z B z c | z [FA] z G | z"_dim." [CE] z [CF] | z!>(! [B,D]!>)! z [B,D] | %111
 z [A,C] z [A,C] |[K:bass] z!p!"_sost." [^D,A,]2 [A,^D] | z .E, z .E, | z !>!D,2 D | z !>!D,2 D | %116
!f! z [D,B,] z [E,D] | z [G,D] z"_dim." [G,C] || z"^arco"!f!"^Tempo I ma risoluto" F,2 [F,A,] | %119
 z [G,C]2 [G,C] | z [=F,D]2 [F,D] | z [E,C]2 [E,C] | z [D,D]2 [D,D] | z [D,E]2 [D,E] | %124
 z [D,=F]2 [D,F] | z"_cresc." [E,G,]2 [D,F,] | z!ff! [D,B,]2 [^D,B,] | z [E,B,]2 [C,E,] | %128
 z"_dim." [E,A,]2 [D,A,] | z D2 D | z!p!"_poco a poco string." D2 D | z D2 C | z!>(! D2!>)! D | %133
 z D2 C | z!pp! [F,D]2"_cresc." [G,C] | z [F,D]2 [G,C] |"^Piu mosso" z!ff! [F,D] z2 | z4 | z4 | %139
 z4 |[K:tenor] z2 z"^pizz."!f! [CF] | z!>(! [B,G] z [A,G]!>)! | z!p! [A,A] z!pp!"^arco" E/B,/ | %143
 D z z E/B,/ | D z!ff! !>![_B,D] z |"^G.P." z4 |"^G.P." z4 | %147
"_senza rit." z"^pizz."!pp! [F,D] z [F,D] | z [F,D] z2 |] %149
V:4
"^Allegretto scherzando" .[D,,A,,] z .F,, z | .G,, z .A,, z | (!>!G,,4 | !>!F,,4) | E,, z G,, z | %5
"_poco sostenuto""_cresc." F,,4 |!f!"_a tempo"!>(! ([B,,F,]4!>)! |!p! [B,,F,]4) | D,, z F,, z | %9
 G,, z A,, z | (!>!G,,4 | !>!F,,4) |!f! E,, z G,, z | B,, z A,, z |"_dim." ([D,,A,,]4 | %15
 [D,,A,,]4) |: z"^pizz."!f! .A, z .E, | z .A, z .E, | z .A, z .E, | z .[C,B,] z .[F,A,] | %20
 z [B,,F,] z E, | z"_dim." [A,,G,] z [D,F,] | z [G,,F,] z [^G,,F,] | z!p! [A,,E,] z E, | %24
 z [A,,E,] z E, | z!f! A, z E, | z A, z E, | z A, z E, | z [C,B,] z [F,A,] | z [B,,F,] z E, | %30
 z"_dim." [A,,G,] z [D,F,] | z [G,,F,] z [^G,,F,] | z [A,,E,] z [G,,E,] | %33
"^arco"!p!"_sostenuto" F,,4 |"_a tempo" .G,, z .A,, z | (!>!G,,4 | !>!F,,4) |!f! E,, z G,, z | %38
 B,, z A,, z |"_dim." ([D,,A,,]4 | [D,,A,,]4) :|[K:F]!mf!"^Poco animato" ([D,A,]2 [A,F]2) | %42
 ([D,A,]2 [A,E]2) | ([D,A,]2 [A,F]2) | ([A,,F,]2 [F,C]2) | ([C,G,]2 [G,E]2) | ([G,,_E,]2 [E,B,]2) | %47
 ([B,,F,]2 [F,D]2) | ([F,D]2 [G,D]2 | [A,^C]2)!p! ([F,D]2 |"_ritard." [G,D]2 [A,^C]2) | %51
!mf!"_a tempo" ([D,A,]2 [A,F]2) | ([D,A,]2 [A,E]2) | ([D,A,]2 [A,F]2) | ([A,,F,]2 [F,C]2) | %55
 ([C,G,]2 [G,E]2) | ([G,,_E,]2 [E,B,]2) | ([B,,F,]2 [F,D]2) | ([F,D]2 [G,D]2 | %59
 [A,^C]2)!p! ([F,D]2 |"_ritard." [G,D]2 [A,^C]2) |:!mf!"_a tempo" A,,4 | D,4 | C,4 | =B,,4 | (C4 | %66
 D4) | C4 | =B,4 | [G,A,]4 | ([F,B,]2 [D,^G,]2) | ^C,2 =C,2 |"_dim." =B,,4 | %73
"_molto rall." [B,,^G,]4 | (A,,4 | A,,4) |1 [D,,A,,]4 :|2 ([D,,A,,]4 || !fermata![D,,A,,]4) || %79
[K:D]!p!"^Tempo I" [D,,A,,] z .F,, z | .G,, z .A,, z | (!>!G,,4 | !>!F,,4) | E,, z G,, z | %84
"_poco sost.""_cresc." F,,4 |!f!"_a tempo"!>(! ([B,,F,]4!>)! |!p! [B,,F,]4) | D,, z F,, z | %88
 G,, z A,, z | (!>!G,,4 | !>!F,,4) |!f! E,, z G,, z | B,, z A,, z |"_dim." ([D,,A,,]4 | %94
 [D,,A,,]4) || z"^pizz."!f! A, z E, | z A, z E, | z A, z E, | z [C,B,] z [F,A,] | z [B,,F,] z E, | %100
 z"_dim." [A,,G,] z [D,F,] | z [G,,F,] z [^G,,F,] | z!p! [A,,E,] z E, | z [A,,E,] z E, | %104
 z!f! .A, z .E, | z A, z E, | z A, z E, | z [C,B,] z [F,A,] | z [B,,F,] z E, | %109
 z"_dim." [A,,G,] z [D,F,] | z!>(! [G,,F,]!>)! z [^G,,F,] | z [A,,E,] z [G,,E,] | %112
"^arco"!p!"_sost." F,,4 | .G,, z .A,, z | (!>!G,,4 | !>!F,,4) |!f! E,, z G,, z | %117
 B,, z"_dim." A,, z ||!f!"^Tempo I ma risoluto" ([D,,A,,]4 | [D,,A,,]4) | ([D,,A,,]4 | [D,,A,,]4) | %122
 ([D,,A,,]4 | [D,,A,,]4) | ([D,,A,,]4 |"_cresc." [D,,A,,]3) z |!ff! (G,,4 | G,,4) |"_dim." F,,4 | %129
 (B,,3 _B,,) | z!p!"_poco a poco string." (A,,3 | (A,,4) |!>(! (A,,4)!>)! | A,,4) | %134
!pp! [D,,A,,] z"_cresc." A,, z | [D,,A,,] z A,, z |!ff!"^Piu mosso" [D,,A,,] z z2 | z4 | z4 | z4 | %140
 z2 z"^pizz."!f! [F,^A,] | z!>(! [E,D] z [_E,C]!>)! | z!p! [D,D] z!pp!"^arco" E,/B,,/ | %143
 D, z z E,/B,,/ | D, z!ff! !>![F,D] z |"^G.P." z4 |"^G.P." z4 | %147
"_senza rit." z"^pizz."!pp! [D,,A,,] z [D,,A,,] | z [D,,A,,] z2 |] %149
V:5
 x4 | x4 | x4 | x4 | x4 | x4 | x4 | x4 | x4 | x4 | x4 | x4 | x4 | x4 | x4 | x4 |: x4 | x4 | x4 | %19
 x4 | x4 | x4 | x4 | x4 | x4 | x4 | x4 | x4 | x4 | x4 | x4 | x4 | x4 | x4 | x4 | x4 | x4 | x4 | %38
 x4 | x4 | x4 :|[K:F] x4 | x4 | x4 | x4 | x4 | x4 | x4 | x4 | x4 | x4 | x4 | x4 | x4 | x4 | x4 | %56
 x4 | x4 | x4 | x4 | x4 |: x4 | x4 | x4 | x4 | x4 | x4 | x4 | x4 | x4 | x4 | (A,4 | A,4) | x4 | %74
 x4 | x4 |1 x4 :|2 x4 || x4 ||[K:D] x4 | x4 | x4 | x4 | x4 | x4 | x4 | x4 | x4 | x4 | x4 | x4 | %91
 x4 | x4 | x4 | x4 || x4 | x4 | x4 | x4 | x4 | x4 | x4 | x4 | x4 | x4 | x4 | x4 | x4 | x4 | x4 | %110
 x4 | x4 | x4 | x4 | x4 | x4 | x4 | x4 || x4 | x4 | x4 | x4 | x4 | x4 | x4 | x4 | x4 | x4 | x4 | %129
 x4 | x4 | x4 | x4 | x4 | x4 | x4 | x4 | x4 | x4 | x4 | x4 | x4 | x4 | x4 | x4 | x4 | x4 | x4 | %148
 x4 |] %149

